X: 5
T: The Sailor On The Rock
R: reel
M: 4/4
L: 1/8
K: Dmaj
d3A BAFB | ADFD DAAB | dcdA BAFB | ABdf edBd |AddA BAFB | ADFD FAAB | d2dA BAFB |ABdf efd2 :||: faad fdef | gfga beeg | faae fedB | AB df efde | faad fdef | gfga beeg | faae fedB | ABdf efd2 :||


Tune 765	Setting 13877

